X: 31554
T: Pádraig O'Keeffe's
R: polka
M: 2/4
K: Gmajor
e|dB ce|d3e|dB GB|A3B/A/|G>A Bd|eg b2|ag ef|g3:|
|:f|e>e ed|ef ge|dB GB|A3B/A/|G>A Bd|eg b2|ag ef|g3:|

